packages/assets/static/images/icons/van.svg

<svg width="24" height="24" viewBox="0 0 24 24" xmlns="http://www.w3.org/2000/svg" fill="currentColor" aria-hidden="true"> <path d="M23.1671 9.39188L18.8949 4.41469C18.7191 4.20608 18.4997 4.03848 18.2522 3.92365C18.0048 3.80883 17.7352 3.74956 17.4624 3.75H2.43799C1.94071 3.75 1.46379 3.94755 1.11216 4.29918C0.760532 4.65081 0.562988 5.12772 0.562988 5.625V16.125C0.562988 16.6223 0.760532 17.0992 1.11216 17.4508C1.46379 17.8025 1.94071 18 2.43799 18H3.75611C3.9888 18.6579 4.41973 19.2276 4.98956 19.6305C5.55939 20.0334 6.24011 20.2497 6.93799 20.2497C7.63587 20.2497 8.31658 20.0334 8.88642 19.6305C9.45625 19.2276 9.88718 18.6579 10.1199 18H13.8811C14.1138 18.6579 14.5447 19.2276 15.1146 19.6305C15.6844 20.0334 16.3651 20.2497 17.063 20.2497C17.7609 20.2497 18.4416 20.0334 19.0114 19.6305C19.5812 19.2276 20.0122 18.6579 20.2449 18H21.563C22.0603 18 22.5372 17.8025 22.8888 17.4508C23.2404 17.0992 23.438 16.6223 23.438 16.125V10.125C23.4378 9.85617 23.3417 9.59623 23.1671 9.39188ZM19.8652 9H15.938V6H17.2899L19.8652 9ZM9.18799 9V6H13.688V9H9.18799ZM6.93799 6V9H2.81299V6H6.93799ZM6.93799 18C6.71548 18 6.49798 17.934 6.31297 17.8104C6.12797 17.6868 5.98377 17.5111 5.89862 17.3055C5.81348 17.1 5.7912 16.8738 5.8346 16.6555C5.87801 16.4373 5.98516 16.2368 6.14249 16.0795C6.29983 15.9222 6.50028 15.815 6.71851 15.7716C6.93674 15.7282 7.16294 15.7505 7.36851 15.8356C7.57407 15.9208 7.74978 16.065 7.87339 16.25C7.99701 16.435 8.06299 16.6525 8.06299 16.875C8.06299 17.1734 7.94446 17.4595 7.73348 17.6705C7.52251 17.8815 7.23636 18 6.93799 18ZM17.063 18C16.8405 18 16.623 17.934 16.438 17.8104C16.253 17.6868 16.1088 17.5111 16.0236 17.3055C15.9385 17.1 15.9162 16.8738 15.9596 16.6555C16.003 16.4373 16.1102 16.2368 16.2675 16.0795C16.4248 15.9222 16.6253 15.815 16.8435 15.7716C17.0617 15.7282 17.2879 15.7505 17.4935 15.8356C17.6991 15.9208 17.8748 16.065 17.9984 16.25C18.122 16.435 18.188 16.6525 18.188 16.875C18.188 17.1734 18.0695 17.4595 17.8585 17.6705C17.6475 17.8815 17.3614 18 17.063 18ZM20.2449 15.75C20.0122 15.0921 19.5812 14.5224 19.0114 14.1195C18.4416 13.7166 17.7609 13.5003 17.063 13.5003C16.3651 13.5003 15.6844 13.7166 15.1146 14.1195C14.5447 14.5224 14.1138 15.0921 13.8811 15.75H10.1199C9.88718 15.0921 9.45625 14.5224 8.88642 14.1195C8.31658 13.7166 7.63587 13.5003 6.93799 13.5003C6.24011 13.5003 5.55939 13.7166 4.98956 14.1195C4.41973 14.5224 3.9888 15.0921 3.75611 15.75H2.81299V11.25H21.188V15.75H20.2449Z"/> </svg>

<svg viewBox="0 0 24 24" xmlns="http://www.w3.org/2000/svg" aria-hidden="true" fill="currentColor"><path d="m23.167 9.392-4.272-4.977a1.87 1.87 0 0 0-1.433-.665H2.438A1.875 1.875 0 0 0 .563 5.625v10.5A1.875 1.875 0 0 0 2.438 18h1.318a3.375 3.375 0 0 0 6.364 0h3.761a3.375 3.375 0 0 0 6.364 0h1.318a1.875 1.875 0 0 0 1.875-1.875v-6a1.13 1.13 0 0 0-.27-.733M19.865 9h-3.927V6h1.352zM9.188 9V6h4.5v3zm-2.25-3v3H2.813V6zm0 12a1.125 1.125 0 1 1 0-2.25 1.125 1.125 0 0 1 0 2.25m10.125 0a1.125 1.125 0 1 1 0-2.25 1.125 1.125 0 0 1 0 2.25m3.182-2.25a3.376 3.376 0 0 0-6.364 0H10.12a3.376 3.376 0 0 0-6.364 0h-.943v-4.5h18.375v4.5z"/></svg>
